X:4
T:White Lightning
R:reel
C:Rodney MacDonald
D:Cape Breton Fiddle and Piano Music, The Beaton Family of Mabou
N:Rodney used A2 once only., then substituted A6 for subsequent repeats
Z:Paul Stewart Cranford (P.S.C.), <http://www.cranfordpub.com>
L:1/8
M:C|
Q:333
K:Edor
A|BE E/E/E EFGA|BEGB EFGE|FD D/D/D dcde|fdec dBAF|
BE E/E/E EFGA|BE E/E/E EFGE|FD D/D/D dcdB|ADFD E2 E :|
|:z|eB B/B/B eBef|gefd eBBc|dA A/A/A dAde|(fa)ed efed|
eB B/B/B eBef|gefd eBBc|dA A/A/A dAFD|GBAF E2 E:|
